svgs/sharp-solid/chart-area.svg

<svg xmlns="http://www.w3.org/2000/svg" viewBox="0 0 512 512"><!--! Font Awesome Pro 6.6.0 by @fontawesome - https://fontawesome.com License - https://fontawesome.com/license (Commercial License) Copyright 2024 Fonticons, Inc. --><path d="M64 64l0-32L0 32 0 64 0 448l0 32 32 0 448 0 32 0 0-64-32 0L64 416 64 64zm64 288l352 0 0-112L384 128l-64 64L240 96 128 224l0 128z"/></svg>

<svg xmlns="http://www.w3.org/2000/svg" viewBox="0 0 512 512"><!--! Font Awesome Pro 6.5.2 by @fontawesome - https://fontawesome.com License - https://fontawesome.com/license (Commercial License) Copyright 2024 Fonticons, Inc. --><path d="M64 64V32H0V64 448v32H32 480h32V416H480 64V64zm64 288H480V240L384 128l-64 64L240 96 128 224V352z"/></svg>
